icons/lines/translate.svg

<svg xmlns="http://www.w3.org/2000/svg" width="24" height="24" viewBox="0 0 24 24" fill="none" stroke="currentColor" stroke-width="2" stroke-linecap="round" stroke-linejoin="round" >
  <path d="M19.0598 18.67L16.9198 14.4L14.7798 18.67"/>
  <path d="M15.1699 17.91H18.6899"/>
  <path d="M16.9198 22C14.1198 22 11.8398 19.73 11.8398 16.92C11.8398 14.12 14.1098 11.84 16.9198 11.84C19.7198 11.84 21.9998 14.11 21.9998 16.92C21.9998 19.73 19.7298 22 16.9198 22Z"/>
  <path d="M5.02 2H8.94C11.01 2 12.01 3.00002 11.96 5.02002V8.94C12.01 11.01 11.01 12.01 8.94 11.96H5.02C3 12 2 11 2 8.92999V5.01001C2 3.00001 3 2 5.02 2Z"/>
  <path d="M9.0097 5.84998H4.94971"/>
  <path d="M6.96973 5.16998V5.84998"/>
  <path d="M7.98994 5.84003C7.98994 7.59003 6.61994 9.01001 4.93994 9.01001"/>
  <path d="M9.01015 9.01001C8.28015 9.01001 7.62016 8.62 7.16016 8"/>
  <path d="M2 15C2 18.87 5.13 22 9 22L7.95 20.25"/>
  <path d="M22 9C22 5.13 18.87 2 15 2L16.05 3.75"/>
  </svg>

<svg xmlns="http://www.w3.org/2000/svg" width="24" height="24" viewBox="0 0 24 24" fill="none" stroke="currentColor" stroke-width="2" stroke-linecap="round" stroke-linejoin="round">
  <path d="M15.17 17.91h3.52" />
  <path d="m19.06 18.67-2.14-4.27-2.14 4.27" />
  <path d="M2 15a7 7 0 0 0 7 7l-1.05-1.75" />
  <path d="M22 9a7 7 0 0 0-7-7l1.05 1.75" />
  <path d="M6.97 5.17v.68" />
  <path d="M7.99 5.84c0 1.75-1.37 3.17-3.05 3.17" />
  <path d="M8.94 2c2.07 0 3.07 1 3.02 3.02v3.92c.05 2.07-.95 3.07-3.02 3.02H5.02C3 12 2 11 2 8.93V5.01C2 3 3 2 5.02 2z" />
  <path d="M9.01 5.85H4.95" />
  <path d="M9.01 9.01c-.73 0-1.39-.39-1.85-1.01" />
  <rect x="11.839" y="11.839" width="10.161" height="10.161" rx="5" />
</svg>
